X:1
T:James Gibb editions
T:Pan divino, gracioso - Guerrero
T:#
%%score [ 1 2 3 4 ]
L:1/8
Q:1/4=150
M:4/4
K:Eb
V:1 treble nm="Soprano" snm="S"
V:2 treble nm="Alto" snm="A"
V:3 treble-8 nm="Tenor" snm="T"
V:4 bass nm="Bass" snm="B"
V:1
"^Francisco Guerrero\n(1528-99)" G6 G2 | B4"^Pan divino, gracioso" A2 G2 | A4 G4 | z2 B4 B2 | %4
w: Pan di-|vi- no, gra-|cio- so,|pan di-|
w: El pan|que~~es- tás mi-|ran- do,|el pan|
 G4 F2 E2 | F4 B4 | z2 G4 E2 | F4 G4 |[M:4/4] z2 G2 B3 B | c2 d2 e4 | d2 e4 B2 | c4 d4 | %12
w: vi- no, gra-|cio- so,|sa- cro-|san- to,|man- jar que|da sus- ten-|to~~al al- ma|mi- a;|
w: que~~es- tás mi-|ran- do,|al- ma|mí- a,|es Dios que~~en|ti re- par-|te gra- cia~~y|vi- da,|
 z2 B2 c4- | c2 c2 c2 c2 | B4 G4 | A4 G4 | B4 B4 | z2 F2 G2 G2 | A2 G2 B4 | B4 z4 | F4 G2 G2 | %21
w: di- cho\-|* so fue~~a- quel|dí- a,|pun- to~~y|ho- ra,|que~~en ta- les|dos es- pe-|cies,|que~~en ta- les|
w: y, pues|* que tal co-|mi- da|te me-|jo- ra,|no du- des|de co- mer-|la,|no du- des|
 A2 G2 B4 | c4 z2 c2- | c2 B2 (B2 =A2) | B8 | z8 | z2 E2 G2 B2- | BB =A2 B4 | G4 z2 E2 | %29
w: dos es- pe-|cies Cris\-|* to mo\- *|ra,||que, si~~el al\-|* ma~~es- tá du-|ra a-|
w: de com- er-|la des\-|* de~~a- go\- *|ra,||que, aun- que~~es-|tu- vier- es du-|ra, a-|
 e3 d c2 B2 | A2 G2 A2 c2 | (B2 G4 FE) | F4 G4 | z2 G2 A4- | A2 A2 A2 G2 | F4 G4 | B4 A4 | B8 | %38
w: qui se~~a- blan- da-|rá con tal dul-|zu\- * * *|* ra,|a qui|* se~~a- blan- da-|rá con|tal dul-|zu-|
w: qui te~~a- blan- da-|rás con tal dul-|zu\- * * *|* ra,|a qui|* te~~a- blan- da-|rás con|tal dul-|zu-|
 B8 |] %39
w: ra.|
w: ra.|
V:2
 E6 E2 | E4 A,2 B,2 | (C2 D2) E4 | G6 G2 | B4 A2 G2 | A4 G4 | z2 E4 E2 | D4 E4 | %8
w: Pan di-|vi- no, gra-|cio\- * so,|pan di-|vi- no, gra-|cio- so,|sa- cro-|san- to,|
w: El pan|que~~es- tás mi-|ran\- * do,|el pan|que~~es- tás mi-|ran- do,|al- ma|mí- a,|
[M:4/4] z2 E2 G3 G | A2 B2 =A4 | B2 G4 G2 | =A4 B4 | z2 G2 A4- | A2 A2 A3 G | F4 E4 | E6 E2 | %16
w: man- jar que|da sus- ten-|to~~al al- ma|mi- a;|di- cho\-|* so fue~~a- quel|dí- a,|pun- to~~y|
w: es Dios que~~en|ti re- par-|te gra- cia~~y|vi- da,|y, pues|* que tal co-|mi- da|te me-|
 F4 F4 | z8 | z4 F4 | G2 G2 A2 G2 | B4 B2 B2 | E2 E2 F2 G2 | (A4 A2) A2- | A2 G2 F4 | F8 | %25
w: ho- ra,||que~~en|ta- les dos es-|pe- cies, que~~en|ta- les dos es-|pe- cies Cris\-|* to mo-|ra,|
w: jo- ra,||no|du- des de co-|mer- la, no|du- des de com-|er- la des\-|* de~~a- go-|ra,|
 z2 E2 G2 B2- | BB =A2 B4 | E4 z4 | z2 B2 e3 d | c2 B2 A2 G2 | E2 E2 (E3 F) | G2 B2 B2 =A2 | %32
w: que, si~~el al\-|* ma~~es- tá du-|ra|a- qui se~~a-|blan- da- rá con|tal dul- zu\- *|ra, con tal dul-|
w: que, aun- que~~es-|tu- vier- es du-|ra,|a- qui te~~a-|blan- da- rás con|tal dul- zu\- *|ra, con tal dul-|
 B4 B4 | z2 E2 E4- | E2 F2 F2 E2 | C4 E4 | G4 E4 | F8 | G8 |] %39
w: zu- ra,|a qui|* se~~a- blan- da-|rá con|tal dul-|zu-|ra.|
w: zu- ra,|a qui|* te~~a- blan- da-|rás con|tal dul-|zu-|ra.|
V:3
 z8 | z8 | z8 | e6 e2 | e4 A2 B2 | (c2 d2) e4 | z2 B4 c2 | A4 B4 |[M:4/4][K:treble-8] z2 B2 e3 d | %9
w: |||Pan di-|vi- no, gra-|cio\- * so,|sa- cro-|san- to,|man- jar que|
w: |||El pan|que~~es- tás mi-|ran\- * do,|al- ma|mí- a,|es Dios que~~en|
 c2 B2 e4 | f2 e4 d2 | e4 f4 | z2 e2 e4- | e2 f2 e2 c2 | d4 B4 | c4 c2 (e2- | e2 dc) d4 | %17
w: da sus- ten-|to~~al al- ma|mi- a;|di- cho\-|* so fue~~a- quel|dí- a,|pun- to~~y ho\-|* * * ra,|
w: ti re- par-|te gra- cia~~y|vi- da,|y, pues|* que tal co-|mi- da|te me- jo\-|* * * ra,|
 B4 e2 e2 | c2 c2 d4 | e4 z4 | B4 e2 e2 | c2 c2 (d4 | e4) (f2 e2- | e3) d c4 | d4 z2 B2 | %25
w: que~~en ta- les|dos es- pe-|cies,|que~~en ta- les|dos es- pe\-|* cies Cris\-|* to mo-|ra, que,|
w: no du- des|de co- mer-|la,|no du- des|de com- er-|la des\- *|* de~~a- go-|ra, que,|
 c2 e3 e d2 | c2- c2 B4 | z4 z2 B2 | e3 d c2 B2 | A2 G2 A2 E2 | A2 E2 z2 e2- | e2 B2 (d2 (e2- | %32
w: si~~el al- ma~~es- tá|du\- * ra,|a-|qui se~~a- blan- da-|rá con tal dul-|zu- ra, con|tal dul- zu\- *|
w: aun- que~~es- tu- vier-|es du- ra,|a-|qui te~~a- blan- da-|rás con tal dul-|zu- ra, con|tal dul- zu\- *|
 e2 d2)) e4 | z2 B2 c4- | c2 _d2 d2 ((B2- | B2 =A2)) B2 e2- | e2 B2 (c2 (e2- | e2 dc d4)) | e8 |] %39
w: * * ra,|a qui|* se~~a- blan- da\-|* * rá con|tal dul- zu\- *||ra.|
w: * * ra,|a qui|* te~~a- blan- da\-|* * rás con|tal dul- zu\- *||ra.|
V:4
 z8 | z8 | z8 | z2 E,4 E,2 | E,4 F,2 G,2 | F,4 E,4 | z2 E,4 A,2 | F,4 E,4 |[M:4/4] z2 E,2 E,2 E,2 | %9
w: |||Pan di-|vi- no, gra-|cio- so,|sa- cro-|san- to,|man- jar que|
w: |||El pan|que~~es- tás mi-|ran- do,|al- ma|mí- a,|es Dios que~~en|
 E2 D2 C4 | B,2 C4 G,2 | C4 B,4 | z2 E,2 A,4- | A,2 F,2 A,2 A,2 | B,4 E,4 | A,4 C4 | B,4 B,4 | z8 | %18
w: da sus- ten-|to~~al al- ma|mi- a;|di- cho\-|* so fue~~a- quel|dí- a,|pun- to~~y|ho- ra,||
w: ti re- par-|te gra- cia~~y|vi- da,|y, pues|* que tal co-|mi- da|te me-|jo- ra,||
 z4 B,4 | E2 E2 C2 C2 | D4 E2 E,2 | A,2 C2 B,2 B,2 | (A,4 F,2) A,2- | A,2 E,2 F,4 | B,,8 | %25
w: que~~en|ta- les dos es-|pe- cies, que~~en|ta- les dos es-|pe- cies Cris\-|* to mo-|ra,|
w: no|du- des de co-|mer- la, no|du- des de com-|er- la des\-|* de~~~a- go-|ra,|
 z4 z2 B,2 | C2 E3 EDD | C4 B,4 | z8 | z2 E,2 E3 D | C2 B,2 A,4 | E,4 B,2 C2 | B,4 E,4 | %33
w: que,|si~~el al- ma es- tá|du- ra||a- qui se~~a-|blan- da- rá|con tal dul-|zu- ra,|
w: que,|aun- que~~es- tu- vier- es|du- ra,||a- qui te~~a-|blan- da- rás|con tal dul-|zu- ra,|
 z2 E,2 A,4- | A,2 _D,2 D,2 E,2 | F,4 E,4 | E,4 A,,4 | B,,8 | E,8 |] %39
w: a qui|* se~~a- blan- da-|rá con|tal dul-|zu-|ra.|
w: a qui|* te~~a- blan- da-|rás con|tal dul-|zu-|ra.|

